shader_type spatial;
render_mode unshaded,shadows_disabled,cull_disabled,fog_disabled,depth_test_disabled,depth_draw_never;
// todo:
// stencil_mode read, compare_equal, 4;

// void vertex() {
// 	POSITION = vec4(VERTEX.xy, 1.0, 1.0);
// }

// void fragment() {
// 	ALBEDO = vec3(1., 0., 0.);
// 	ALPHA = 1.0;
// }
